assets/img/pricing_table/double_room.svg

<?xml version="1.0" encoding="UTF-8"?>
<svg width="50px" height="50px" viewBox="0 0 50 50" version="1.1" xmlns="http://www.w3.org/2000/svg" xmlns:xlink="http://www.w3.org/1999/xlink">
    <!-- Generator: Sketch 48.2 (47327) - http://www.bohemiancoding.com/sketch -->
    <title>Double Room</title>
    <desc>Created with Sketch.</desc>
    <defs></defs>
    <g id="Desktop---Version-2-Copy" stroke="none" stroke-width="1" fill="none" fill-rule="evenodd" transform="translate(-155.000000, -4700.000000)">
        <g id="Pricing-section" transform="translate(0.000000, 4371.000000)">
            <g id="Cards" transform="translate(137.000000, 184.000000)">
                <g id="Early-Bird">
                    <g id="Text" transform="translate(19.000000, 144.000000)">
                        <g id="Rooms">
                            <g id="Double-Room" transform="translate(0.000000, 2.000000)">
                                <path d="M11.1272732,26.3038171 L11.1272732,37.6181834 L11.3847768,37.6181834 L11.646595,35.6010444 L35.4796323,35.6010444 L35.7414505,37.6181834 L36.0000014,37.6181834 L36.0000014,26.3038171 L11.1272732,26.3038171 Z M33.1273322,24.9071063 L34.335885,24.9071063 L34.335885,20.5522852 C26.7772822,18.0065353 20.144423,17.9881294 12.790866,20.5539309 L12.790866,24.9071063 L13.9988951,24.9071063 L13.9988951,21.8079133 L14.4309504,21.6517526 C17.6594598,20.4848498 19.9625576,20.4905312 23.270458,21.6425449 L23.5774641,21.7494632 L23.8481896,21.6516938 C27.0788291,20.4849854 29.380975,20.4904231 32.6881239,21.6425677 L33.1273322,21.7955791 L33.1273322,24.9071063 Z M23.7097319,24.9071063 L23.7097319,25.2678917 L23.5628518,25.4147717 L23.4159718,25.2678917 L23.4159718,24.9071063 L23.7097319,24.9071063 Z" id="Shape" stroke="#AE8A61" stroke-width="1.30909096" fill-rule="nonzero"></path>
                                <path d="M23.5636373,0 C10.5564456,0 0,10.5565095 0,23.5636373 C0,36.5708773 10.5564456,47.1272746 23.5636373,47.1272746 C36.570829,47.1272746 47.1272746,36.5708773 47.1272746,23.5636373 C47.1272746,10.5565095 36.570829,0 23.5636373,0 Z" id="Path" stroke="#AE8A61" stroke-width="1.83272735" stroke-linecap="square"></path>
                                <path d="M19.952387,7.63340869 C19.9851145,7.60068126 20.0352276,7.55670442 20.1027279,7.50147687 C20.1702283,7.44624931 20.3154541,7.35215934 20.5384098,7.21920412 C20.7613655,7.0862489 20.9955677,6.96659099 21.2410235,6.86022682 C21.4864793,6.75386264 21.8065897,6.65670451 22.2013645,6.56874952 C22.5961392,6.48079453 22.998067,6.43681769 23.40716,6.43681769 C24.4789836,6.43681769 25.3124981,6.67408806 25.9077284,7.14863593 C26.5029587,7.62318379 26.8005694,8.24499581 26.8005694,9.01409062 C26.8005694,9.30863757 26.758638,9.58783935 26.6747739,9.85170433 C26.5909098,10.1155693 26.5050016,10.3293172 26.4170466,10.4929544 C26.3290916,10.6565916 26.1807976,10.8488624 25.9721602,11.0697726 C25.7635228,11.2906828 25.6111379,11.4410222 25.5150011,11.5207954 C25.4188642,11.6005685 25.2398887,11.7509079 24.9780692,11.9718181 L23.5973873,13.1009091 L27.2423876,13.1009091 L27.2423876,15.2363638 L20.3942052,15.2363638 L20.0812507,13.4752273 L22.9039782,11.0881817 C23.382617,10.6872706 23.7017047,10.3692055 23.861251,10.1339771 C24.0207972,9.89874861 24.1005692,9.65227378 24.1005692,9.3945452 C24.1005692,8.89136082 23.7651179,8.63977241 23.0942054,8.63977241 C22.7669311,8.63977241 22.4151164,8.72158978 22.0387508,8.88522698 C21.6623853,9.04886417 21.3228432,9.27999824 21.0201144,9.57863612 L19.952387,7.63340869 Z" id="2" fill="#AE8A61"></path>
                            </g>
                        </g>
                    </g>
                </g>
            </g>
        </g>
    </g>
</svg>

<svg width="50" height="50" viewBox="0 0 50 50" xmlns="http://www.w3.org/2000/svg"><title>Double Room</title><g transform="translate(1 1)" fill="none" fill-rule="evenodd"><path d="M11.127 26.304v11.314h.258l.262-2.017H35.48l.261 2.017H36V26.304H11.127zm22-1.397h1.209v-4.355c-7.559-2.545-14.192-2.564-21.545.002v4.353h1.208v-3.1l.432-.155c3.228-1.167 5.532-1.161 8.84-.01l.306.107.271-.097c3.23-1.167 5.533-1.162 8.84-.01l.44.154v3.111zm-9.417 0v.36l-.147.148-.147-.147v-.36h.294z" stroke="#AE8A61" stroke-width="1.309"/><path d="M23.564 0C10.556 0 0 10.557 0 23.564s10.556 23.563 23.564 23.563c13.007 0 23.563-10.556 23.563-23.563S36.571 0 23.564 0z" stroke="#AE8A61" stroke-width="1.833" stroke-linecap="square"/><path d="M19.952 7.633c.033-.032.083-.076.15-.132a4.37 4.37 0 0 1 .436-.282c.223-.133.458-.252.703-.359.245-.106.566-.203.96-.291a5.528 5.528 0 0 1 1.206-.132c1.072 0 1.905.237 2.5.712.596.474.894 1.096.894 1.865 0 .295-.042.574-.126.838-.084.264-.17.477-.258.641a2.887 2.887 0 0 1-.445.577 6.13 6.13 0 0 1-.457.45c-.096.08-.275.23-.537.452l-1.38 1.129h3.644v2.135h-6.848l-.313-1.76 2.823-2.388c.479-.4.798-.719.957-.954.16-.235.24-.482.24-.74 0-.503-.336-.754-1.007-.754-.327 0-.679.082-1.055.245a3.336 3.336 0 0 0-1.019.694l-1.068-1.946z" fill="#AE8A61"/></g></svg>
